X:7129
T:the New White Hart Hornpipe
O:england
M:3/2
L:1/8
K:D
P:1
d2 Bc dBAG  FGAF | G2 E2 efed  c2 A2| BcdB  ABAG  FGAG  | F2 D2 D2 c2 d4 ||
P:2
d2 de fefg  fgad | c2 a2 B2^g2 a2 ed| cdec  d2 cB ABA=G | FGAF  D2 c2 d4 ||
P:3
dA F2 BG E2 AF D2| cdef  e2 E2 FGAF | d2 A2 B2 G2 A2 F2 | gfed  cdec  d4 |]


